X:1
T:Hanging Johnny
M:4/4
L:1/4
K:D
 D/2E/2| F F E D| F A3/2- A d/2| B2B/2-A/2 F| A2 d c| B B A F| E/2 D3/2- D E|\
 F2 E2| D3||
